svgs/thin/house-medical-flag.svg

<svg xmlns="http://www.w3.org/2000/svg" viewBox="0 0 640 512"><!--! Font Awesome Pro 6.6.0 by @fontawesome - https://fontawesome.com License - https://fontawesome.com/license (Commercial License) Copyright 2024 Fonticons, Inc. --><path d="M464 8l0 24 160 0c8.8 0 16 7.2 16 16l0 128c0 8.8-7.2 16-16 16l-160 0 0 320-16 0 0-320s0 0 0 0l0-16 0-128 0-16s0 0 0 0l0-24c0-4.4 3.6-8 8-8s8 3.6 8 8zM624 176l0-128L464 48l0 128 160 0zM276.8 33.6L416 138l0 20L272 50 80 194l0 254c0 26.5 21.5 48 48 48l288 0 0 16-288 0c-35.3 0-64-28.7-64-64l0-242L20.8 238.4c-3.5 2.7-8.5 1.9-11.2-1.6s-1.9-8.5 1.6-11.2l256-192c2.8-2.1 6.8-2.1 9.6 0zM248 200l0 56c0 4.4-3.6 8-8 8l-56 0c-4.4 0-8 3.6-8 8l0 32c0 4.4 3.6 8 8 8l56 0c4.4 0 8 3.6 8 8l0 56c0 4.4 3.6 8 8 8l32 0c4.4 0 8-3.6 8-8l0-56c0-4.4 3.6-8 8-8l56 0c4.4 0 8-3.6 8-8l0-32c0-4.4-3.6-8-8-8l-56 0c-4.4 0-8-3.6-8-8l0-56c0-4.4-3.6-8-8-8l-32 0c-4.4 0-8 3.6-8 8zm8-24l32 0c13.3 0 24 10.7 24 24l0 48 48 0c13.3 0 24 10.7 24 24l0 32c0 13.3-10.7 24-24 24l-48 0 0 48c0 13.3-10.7 24-24 24l-32 0c-13.3 0-24-10.7-24-24l0-48-48 0c-13.3 0-24-10.7-24-24l0-32c0-13.3 10.7-24 24-24l48 0 0-48c0-13.3 10.7-24 24-24z"/></svg>

<svg xmlns="http://www.w3.org/2000/svg" viewBox="0 0 640 512"><!--! Font Awesome Pro 6.4.0 by @fontawesome - https://fontawesome.com License - https://fontawesome.com/license (Commercial License) Copyright 2023 Fonticons, Inc. --><path d="M464 8V32H624c8.8 0 16 7.2 16 16V176c0 8.8-7.2 16-16 16H464V512H448V192h0V176 48 32h0V8c0-4.4 3.6-8 8-8s8 3.6 8 8zM624 176V48H464V176H624zM276.8 33.6L416 138v20L272 50 80 194V448c0 26.5 21.5 48 48 48l288 0v16H128c-35.3 0-64-28.7-64-64V206L20.8 238.4c-3.5 2.7-8.5 1.9-11.2-1.6s-1.9-8.5 1.6-11.2l256-192c2.8-2.1 6.8-2.1 9.6 0zM248 200v56c0 4.4-3.6 8-8 8H184c-4.4 0-8 3.6-8 8v32c0 4.4 3.6 8 8 8h56c4.4 0 8 3.6 8 8v56c0 4.4 3.6 8 8 8h32c4.4 0 8-3.6 8-8V320c0-4.4 3.6-8 8-8h56c4.4 0 8-3.6 8-8V272c0-4.4-3.6-8-8-8H304c-4.4 0-8-3.6-8-8V200c0-4.4-3.6-8-8-8H256c-4.4 0-8 3.6-8 8zm8-24h32c13.3 0 24 10.7 24 24v48h48c13.3 0 24 10.7 24 24v32c0 13.3-10.7 24-24 24H312v48c0 13.3-10.7 24-24 24H256c-13.3 0-24-10.7-24-24V328H184c-13.3 0-24-10.7-24-24V272c0-13.3 10.7-24 24-24h48V200c0-13.3 10.7-24 24-24z"/></svg>
